**kern	**kern
*part1	*part1
*staff2	*staff1
*I"Piano	*
*clefF4	*clefG2
*k[b-e-a-d-g-]	*k[b-e-a-d-g-]
=1	=1
*	*^
8DD-	8.e-	16e-LL
.	.	16B-
16r	.	16G-JJ
8r	8.e-<	16e-LL<
.	.	16B-<
16r	.	16G-JJ<
=	=	=
8r	8.g-	16g-LL
.	.	16e-
16r	.	16B-JJ
*clefG2	*	*
8r	8.b-<	16b-LL<
.	.	16g-<
16r	.	16e-JJ<
*clefF4	*	*
=	=	=
8D-	(4dd-	16dd-LL
.	.	16g- 16a-
16r	.	16e-JJ
16ryy	.	16g-LL<
8ryy	8cc	16e-<
.	.	16A-JJ<
=	=	=
8r	4b-	16b-LL
.	.	16g-
16r	.	16d-JJ
16ryy	.	16g-LL<
8ryy	8a-)	16e-<
.	.	16cJJ<
=	=	=
8DD-	(4.a-	16a-LL
.	.	16d- 16f
16r	.	16A-JJ
16ryy	.	16d-LL<
8ryy	.	16F< 16A-<
.	.	16D-JJ<)
=	=	=
8BB-	(4.b-	16b-LL
.	.	16en 16gn
16r	.	16d-JJ
!	!LO:TX:b:i:t=cresc.	!
16ryy	.	16d-LL<
8ryy	.	16En< 16Gn<
.	.	16D-JJ<)
=	=	=
8FF	([4.cc	16ccLL
.	.	16f 16an
16r	.	16cJJ
16ryy	.	16cLL<
8ryy	.	16F< 16An<
.	.	16CJJ<)
*	*v	*v
=	=
*-	*-
!!!system-decoration: {(s1,s2)}
!!!RDF**kern: < = below
